X: 18448
T: Hurlock's
R: reel
M: 4/4
K: Amajor
|:AB|cBcA E2 AB|cBce f2 ef|agaf efAB|c2 B2 B2 AB|
cBcA E2 AB|cBce f2 ef|agaf efAB|c2 A2 A2:|
ce|fece aece|fecA E2 AB|cBcA EFAB|c2 B2 B2 ce|
fece aece|fecA E2 AB|cBcA EFAB|c2 A2 A2 ce|
fece aece|fecA E2 AB|cBcA EFAB|c2 B2 B2 AB|
cBcA E2 AB|cBce f2 ef|agaf efAB c2 A2 A2||

